X: 5
T: Lewis Lilt
R: polka
M: 2/4
L: 1/8
K: Gmaj
DG B2|cA B2|BA/G/ FG|AG FE|DG B2|cA B2|
BA/G/ FG|1 AG G>E:|2 AG G>B||d2 dg|ed d>B|AG FG|
AG GB|d2 dg|ed d>B|AG FG|AG G>B|d2 dg|
ed d>B|AG FG|AG FE|DG B2|cA B2|BA/G/ FG|AG G2||

